X:76
T:Steyrer Tanz in G, nr. 38
C:traditionell
R:Steirer
A:Hallstatt, Salzkammergut
B:Corpus Musicae Popularis Austriacae (COMPA), 5.Band: J.M.Schmalnauer " Tanz Musik", Verlag Boehlau, Wien 1996
S:manuscript des Johann Michael Schmalnauer um 1820
N:im der quelle in G
Z:abc transcription Simon Wascher
F:http://simonwascher.info/TradArchiv/
M:3/4
L:1/8
K:G
V:1
%violino 1mo
D2 FA c2 | cBBA G2 | BAAG F2 | CFAFGB |\
D2 FA c2 | cBBA G2 | BAAGFD | "in D"G6 :|
V:2
%violino 2do
F2 (Ac"4" e2) | (ed)(dc B2) | (dc)(cB A2) | FAcDBd |\
F2 Ac e2 | eddc B2 | dccB AD | "in D"B6 :|
